X: 1
T: Covering Ground
M: 6/8
L: 1/8
R: jig
K: Edor
|:B2E FEE|DEF FED|B2E EFA|ABd F2E|
B2E FEE|DEF FED|Bcd e2 A|Bcd F2E:|
|:B2e d2B|FBB c2A|B2e dcB|ABd F2E|
B2e d2B|FBB c2A|Bcd e2 A|Bcd F2E:|
|:B2A GBd|FBd EFA|B2A GBF|ABd F2E|
B2A GBd|FBd EFA|Bcd e2 A|Bcd F2E:|
